flaticon/symbols/aqua.svg

<svg xmlns="http://www.w3.org/2000/svg" width="32" height="32" viewBox="0 0 24 24">
    <path d="M 2.226562 3.488281 L 11.730469 19.710938 L 21.117188 3.488281 Z M 11.726562 18.097656 L 3.640625 4.300781 L 19.710938 4.300781 Z M 11.726562 18.097656"/>
    <path d="M 22.785156 7.136719 L 20.878906 7.136719 L 22.519531 4.300781 L 22.785156 4.300781 C 23.453125 4.300781 24 3.753906 24 3.085938 C 24 2.414062 23.453125 1.867188 22.785156 1.867188 L 0.808594 1.867188 C 0.515625 1.867188 0.253906 2.019531 0.109375 2.277344 C -0.0390625 2.53125 -0.0351562 2.832031 0.113281 3.085938 L 11.039062 21.730469 C 11.183594 21.980469 11.445312 22.132812 11.734375 22.132812 C 11.738281 22.132812 11.738281 22.132812 11.738281 22.132812 C 12.03125 22.128906 12.289062 21.980469 12.433594 21.726562 L 19.472656 9.566406 L 22.785156 9.566406 C 23.453125 9.566406 24 9.019531 24 8.351562 C 24 7.679688 23.453125 7.136719 22.785156 7.136719 Z M 22.785156 8.753906 L 19.003906 8.753906 L 11.738281 21.320312 L 0.808594 2.679688 L 22.785156 2.679688 C 23.007812 2.679688 23.1875 2.859375 23.1875 3.085938 C 23.1875 3.308594 23.007812 3.488281 22.785156 3.488281 L 22.050781 3.488281 L 19.472656 7.945312 L 22.785156 7.945312 C 23.007812 7.945312 23.1875 8.128906 23.1875 8.351562 C 23.1875 8.574219 23.007812 8.753906 22.785156 8.753906 Z M 22.785156 8.753906"/>
</svg>

<svg xmlns="http://www.w3.org/2000/svg" width="32" height="32" viewBox="0 0 24 24">
    <path d="M2.227 3.488l9.503 16.223 9.387-16.223zm9.5 14.61L3.64 4.3h16.07zm0 0"/>
    <path d="M22.785 7.137H20.88l1.64-2.836h.266C23.453 4.3 24 3.754 24 3.086a1.22 1.22 0 0 0-1.215-1.219H.81a.792.792 0 0 0-.7.41.79.79 0 0 0 .004.809L11.04 21.73a.8.8 0 0 0 .695.403h.004a.798.798 0 0 0 .696-.406l7.039-12.16h3.312c.668 0 1.215-.547 1.215-1.215 0-.672-.547-1.215-1.215-1.215zm0 1.617h-3.781L11.738 21.32.808 2.68h21.977c.223 0 .402.18.402.406 0 .223-.18.402-.402.402h-.734l-2.578 4.457h3.312a.405.405 0 0 1 0 .809zm0 0"/>
</svg>
